X:1
T:Munster Grass
C:Ed Reavy
R:hornpipe
I:abc2nwc
M:4/4
L:1/8
K:G
B,A,|G,B,DG B2cB|cAFA G2FG|A^GAB cBA=G|FGAF D2Bc|
dBGD G,B,DG|cAFA c2dc| (3BdB GB ADFG|AGGF G2:|
|:Bc|dggf gedc|BGBG gdcB|Aaa^g aba=g|fgaf gefd|
bagf gdBG|FGAB cbag|fedB cAFG|AGGF G2:|
